X: 39126
T: Sweet Flowers Of Milltown, The
R: barndance
M: 4/4
K: Gmajor
|:GFGB AGED|GFGB dzd2|efge dBBA|GBAG EED2|
GFGB AGED|GFGB dzd2|ef (3gfe dcBG|1 A2g2g2 dB:|2 A2g2g2 (3def||
|:~g3b az af|~g3e dz Bd|efge dBBA|GBAG E2D2|
gfge agaf|gfge dz Bd|ef (3gfe dcBG|1 A2g2g2 ef:|2 A2g2g2z2||

